static/img/mobile/button-pill-tertiary-dark.svg

<svg fill="none" height="48" viewBox="0 0 117 48" width="117" xmlns="http://www.w3.org/2000/svg" xmlns:xlink="http://www.w3.org/1999/xlink"><clipPath id="a"><path d="m16 12h85v24h-85z"/></clipPath><rect fill="#cbcdd6" height="48" rx="24" width="117"/><g clip-path="url(#a)" fill="#252a2e"><path d="m34.3 17.7102c-.0925-.0927-.2024-.1662-.3234-.2164s-.2507-.076-.3816-.076c-.131 0-.2607.0258-.3816.076-.121.0502-.2309.1237-.3234.2164l-4.89 4.88-4.89-4.89c-.0926-.0926-.2025-.166-.3235-.2161-.1209-.0501-.2506-.0759-.3815-.0759-.131 0-.2606.0258-.3816.0759-.1209.0501-.2308.1235-.3234.2161s-.166.2025-.2161.3235c-.0502.1209-.0759.2506-.0759.3815 0 .131.0257.2606.0759.3816.0501.1209.1235.2308.2161.3234l4.89 4.89-4.89 4.89c-.0926.0926-.166.2025-.2161.3235-.0502.1209-.0759.2506-.0759.3815 0 .131.0257.2606.0759.3816.0501.1209.1235.2308.2161.3234s.2025.166.3234.2161c.121.0502.2506.0759.3816.0759.1309 0 .2606-.0257.3815-.0759.121-.0501.2309-.1235.3235-.2161l4.89-4.89 4.89 4.89c.0926.0926.2025.166.3234.2161.121.0502.2506.0759.3816.0759.1309 0 .2606-.0257.3815-.0759.121-.0501.2309-.1235.3235-.2161s.166-.2025.2161-.3234c.0501-.121.0759-.2506.0759-.3816 0-.1309-.0258-.2606-.0759-.3815-.0501-.121-.1235-.2309-.2161-.3235l-4.89-4.89 4.89-4.89c.38-.38.38-1.02 0-1.4z"/><path d="m54.625 20.0078c-.5469 0-1.0365.099-1.4688.2969-.427.1979-.789.4844-1.0859.8594-.2969.3698-.5234.8203-.6797 1.3515-.1562.5261-.2344 1.1198-.2344 1.7813 0 .8854.125 1.6484.375 2.289.25.6355.6303 1.125 1.1407 1.4688.5104.3385 1.1562.5078 1.9375.5078.4844 0 .9557-.0469 1.414-.1406.4584-.0938.9323-.2214 1.4219-.3828v1.5937c-.4635.1823-.9323.3151-1.4062.3984-.474.0834-1.0209.125-1.6407.125-1.1666 0-2.1354-.2421-2.9062-.7265-.7656-.4844-1.3386-1.1667-1.7188-2.0469-.375-.8802-.5625-1.9114-.5625-3.0937 0-.8646.1198-1.6563.3594-2.375.2396-.7188.5886-1.3386 1.0469-1.8594.4583-.5261 1.0234-.9297 1.6953-1.2109.6771-.2865 1.4505-.4297 2.3203-.4297.5729 0 1.1354.0651 1.6875.1953.5573.125 1.0729.3047 1.5469.539l-.6563 1.5469c-.3958-.1875-.8099-.3489-1.2421-.4844-.4323-.1354-.8803-.2031-1.3438-.2031zm8.7266 1.1797c1.0937 0 1.9192.2422 2.4765.7266.5625.4843.8438 1.2395.8438 2.2656v5.8203h-1.3047l-.3516-1.2266h-.0625c-.2448.3125-.4974.5704-.7578.7735s-.5625.3541-.9062.4531c-.3386.1042-.7526.1562-1.2422.1562-.5157 0-.9766-.0937-1.3828-.2812-.4063-.1927-.7266-.4844-.961-.875-.2343-.3906-.3515-.8854-.3515-1.4844 0-.8906.3307-1.5599.9922-2.0078.6666-.4479 1.6718-.6953 3.0156-.7422l1.5-.0547v-.4531c0-.5989-.1406-1.026-.4219-1.2812-.276-.2552-.6667-.3828-1.1719-.3828-.4323 0-.8515.0624-1.2578.1874-.4062.125-.8021.2787-1.1875.461l-.5937-1.2969c.4218-.2239.901-.4062 1.4375-.5469.5416-.1406 1.1041-.2109 1.6875-.2109zm1.5 4.6797-1.1172.039c-.9167.0313-1.5599.1876-1.9297.4688s-.5547.6667-.5547 1.1562c0 .4271.1276.7396.3828.9376.2552.1927.5912.289 1.0078.289.6354 0 1.1615-.1797 1.5782-.539.4218-.3646.6328-.8985.6328-1.6016zm9.1484-4.6797c.974 0 1.7318.2526 2.2734.7578.5469.5.8204 1.3047.8204 2.4141v5.6406h-1.836v-5.2969c0-.6719-.138-1.1745-.414-1.5078-.2761-.3385-.7032-.5078-1.2813-.5078-.8385 0-1.4219.2578-1.75.7734-.3229.5157-.4844 1.2631-.4844 2.2422v4.2969h-1.8359v-8.6484h1.4297l.2578 1.1718h.1015c.1876-.302.4193-.5494.6954-.7422.2812-.1979.5937-.3463.9375-.4453.3489-.0989.7109-.1484 1.0859-.1484zm9.3984 8.9687c-.8177 0-1.526-.1588-2.125-.4765-.5989-.3177-1.0599-.8047-1.3828-1.4609-.3229-.6563-.4844-1.4896-.4844-2.5 0-1.0521.1771-1.9115.5313-2.5782.3542-.6666.8437-1.1588 1.4687-1.4765.6303-.3177 1.3516-.4766 2.1641-.4766.5156 0 .9818.0521 1.3985.1563.4218.0989.7786.2213 1.0703.3671l-.5469 1.4688c-.3177-.1302-.6432-.2396-.9766-.3281-.3333-.0886-.6536-.1328-.9609-.1328-.5052 0-.9271.1119-1.2656.3359-.3334.2239-.5834.5573-.75 1-.1615.4427-.2422.9922-.2422 1.6484 0 .6354.0833 1.1719.25 1.6094.1666.4323.414.7604.7422.9844.3281.2187.7317.3281 1.2109.3281.474 0 .8984-.0573 1.2734-.1719s.7292-.263 1.0625-.4453v1.5938c-.3281.1875-.6797.3255-1.0547.414-.375.0938-.8359.1406-1.3828.1406zm8.1641-8.9687c.7708 0 1.4323.1589 1.9844.4766s.9765.7682 1.2734 1.3515c.2969.5834.4453 1.2813.4453 2.0938v.9844h-5.7734c.0208.8385.2448 1.4843.6719 1.9374.4323.4532 1.0364.6797 1.8125.6797.552 0 1.0468-.052 1.4843-.1562.4427-.1094.8985-.2682 1.3672-.4766v1.4922c-.4323.2031-.8724.3516-1.3203.4453-.4479.0938-.9844.1406-1.6094.1406-.8489 0-1.5963-.164-2.2422-.4921-.6406-.3334-1.1432-.8282-1.5078-1.4844-.3593-.6563-.539-1.4714-.539-2.4453 0-.9688.164-1.7917.4922-2.4688.3281-.6771.789-1.1927 1.3828-1.5468.5937-.3542 1.2864-.5313 2.0781-.5313zm0 1.3828c-.5781 0-1.0469.1875-1.4063.5625-.3541.375-.5624.9245-.625 1.6484h3.9376c-.0053-.4322-.0782-.8151-.2188-1.1484-.1354-.3333-.3438-.5937-.625-.7812-.276-.1875-.6302-.2813-1.0625-.2813zm7.8672 7.4297h-1.8438v-12.1562h1.8438z"/></g></svg>

<svg width="117" height="48" viewBox="0 0 117 48" fill="none" xmlns="http://www.w3.org/2000/svg">
<rect width="117" height="48" rx="24" fill="#CBCDD6"/>
<g clip-path="url(#clip0_647_123094)">
<path d="M34.3 17.7102C34.2075 17.6175 34.0976 17.544 33.9766 17.4938C33.8556 17.4436 33.7259 17.4178 33.595 17.4178C33.464 17.4178 33.3343 17.4436 33.2134 17.4938C33.0924 17.544 32.9825 17.6175 32.89 17.7102L28 22.5902L23.11 17.7002C23.0174 17.6076 22.9075 17.5342 22.7865 17.4841C22.6656 17.434 22.5359 17.4082 22.405 17.4082C22.274 17.4082 22.1444 17.434 22.0234 17.4841C21.9025 17.5342 21.7926 17.6076 21.7 17.7002C21.6074 17.7928 21.534 17.9027 21.4839 18.0237C21.4337 18.1446 21.408 18.2743 21.408 18.4052C21.408 18.5362 21.4337 18.6658 21.4839 18.7868C21.534 18.9077 21.6074 19.0176 21.7 19.1102L26.59 24.0002L21.7 28.8902C21.6074 28.9828 21.534 29.0927 21.4839 29.2137C21.4337 29.3346 21.408 29.4643 21.408 29.5952C21.408 29.7262 21.4337 29.8558 21.4839 29.9768C21.534 30.0977 21.6074 30.2076 21.7 30.3002C21.7926 30.3928 21.9025 30.4662 22.0234 30.5163C22.1444 30.5665 22.274 30.5922 22.405 30.5922C22.5359 30.5922 22.6656 30.5665 22.7865 30.5163C22.9075 30.4662 23.0174 30.3928 23.11 30.3002L28 25.4102L32.89 30.3002C32.9826 30.3928 33.0925 30.4662 33.2134 30.5163C33.3344 30.5665 33.464 30.5922 33.595 30.5922C33.7259 30.5922 33.8556 30.5665 33.9765 30.5163C34.0975 30.4662 34.2074 30.3928 34.3 30.3002C34.3926 30.2076 34.466 30.0977 34.5161 29.9768C34.5662 29.8558 34.592 29.7262 34.592 29.5952C34.592 29.4643 34.5662 29.3346 34.5161 29.2137C34.466 29.0927 34.3926 28.9828 34.3 28.8902L29.41 24.0002L34.3 19.1102C34.68 18.7302 34.68 18.0902 34.3 17.7102Z" fill="#252A2E"/>
<path d="M54.625 20.0078C54.0781 20.0078 53.5885 20.1068 53.1562 20.3047C52.7292 20.5026 52.3672 20.7891 52.0703 21.1641C51.7734 21.5339 51.5469 21.9844 51.3906 22.5156C51.2344 23.0417 51.1562 23.6354 51.1562 24.2969C51.1562 25.1823 51.2812 25.9453 51.5312 26.5859C51.7812 27.2214 52.1615 27.7109 52.6719 28.0547C53.1823 28.3932 53.8281 28.5625 54.6094 28.5625C55.0938 28.5625 55.5651 28.5156 56.0234 28.4219C56.4818 28.3281 56.9557 28.2005 57.4453 28.0391V29.6328C56.9818 29.8151 56.513 29.9479 56.0391 30.0312C55.5651 30.1146 55.0182 30.1562 54.3984 30.1562C53.2318 30.1562 52.263 29.9141 51.4922 29.4297C50.7266 28.9453 50.1536 28.263 49.7734 27.3828C49.3984 26.5026 49.2109 25.4714 49.2109 24.2891C49.2109 23.4245 49.3307 22.6328 49.5703 21.9141C49.8099 21.1953 50.1589 20.5755 50.6172 20.0547C51.0755 19.5286 51.6406 19.125 52.3125 18.8438C52.9896 18.5573 53.763 18.4141 54.6328 18.4141C55.2057 18.4141 55.7682 18.4792 56.3203 18.6094C56.8776 18.7344 57.3932 18.9141 57.8672 19.1484L57.2109 20.6953C56.8151 20.5078 56.401 20.3464 55.9688 20.2109C55.5365 20.0755 55.0885 20.0078 54.625 20.0078ZM63.3516 21.1875C64.4453 21.1875 65.2708 21.4297 65.8281 21.9141C66.3906 22.3984 66.6719 23.1536 66.6719 24.1797V30H65.3672L65.0156 28.7734H64.9531C64.7083 29.0859 64.4557 29.3438 64.1953 29.5469C63.9349 29.75 63.6328 29.901 63.2891 30C62.9505 30.1042 62.5365 30.1562 62.0469 30.1562C61.5312 30.1562 61.0703 30.0625 60.6641 29.875C60.2578 29.6823 59.9375 29.3906 59.7031 29C59.4688 28.6094 59.3516 28.1146 59.3516 27.5156C59.3516 26.625 59.6823 25.9557 60.3438 25.5078C61.0104 25.0599 62.0156 24.8125 63.3594 24.7656L64.8594 24.7109V24.2578C64.8594 23.6589 64.7188 23.2318 64.4375 22.9766C64.1615 22.7214 63.7708 22.5938 63.2656 22.5938C62.8333 22.5938 62.4141 22.6562 62.0078 22.7812C61.6016 22.9062 61.2057 23.0599 60.8203 23.2422L60.2266 21.9453C60.6484 21.7214 61.1276 21.5391 61.6641 21.3984C62.2057 21.2578 62.7682 21.1875 63.3516 21.1875ZM64.8516 25.8672L63.7344 25.9062C62.8177 25.9375 62.1745 26.0938 61.8047 26.375C61.4349 26.6562 61.25 27.0417 61.25 27.5312C61.25 27.9583 61.3776 28.2708 61.6328 28.4688C61.888 28.6615 62.224 28.7578 62.6406 28.7578C63.276 28.7578 63.8021 28.5781 64.2188 28.2188C64.6406 27.8542 64.8516 27.3203 64.8516 26.6172V25.8672ZM74 21.1875C74.974 21.1875 75.7318 21.4401 76.2734 21.9453C76.8203 22.4453 77.0938 23.25 77.0938 24.3594V30H75.2578V24.7031C75.2578 24.0312 75.1198 23.5286 74.8438 23.1953C74.5677 22.8568 74.1406 22.6875 73.5625 22.6875C72.724 22.6875 72.1406 22.9453 71.8125 23.4609C71.4896 23.9766 71.3281 24.724 71.3281 25.7031V30H69.4922V21.3516H70.9219L71.1797 22.5234H71.2812C71.4688 22.2214 71.7005 21.974 71.9766 21.7812C72.2578 21.5833 72.5703 21.4349 72.9141 21.3359C73.263 21.237 73.625 21.1875 74 21.1875ZM83.3984 30.1562C82.5807 30.1562 81.8724 29.9974 81.2734 29.6797C80.6745 29.362 80.2135 28.875 79.8906 28.2188C79.5677 27.5625 79.4062 26.7292 79.4062 25.7188C79.4062 24.6667 79.5833 23.8073 79.9375 23.1406C80.2917 22.474 80.7812 21.9818 81.4062 21.6641C82.0365 21.3464 82.7578 21.1875 83.5703 21.1875C84.0859 21.1875 84.5521 21.2396 84.9688 21.3438C85.3906 21.4427 85.7474 21.5651 86.0391 21.7109L85.4922 23.1797C85.1745 23.0495 84.849 22.9401 84.5156 22.8516C84.1823 22.763 83.862 22.7188 83.5547 22.7188C83.0495 22.7188 82.6276 22.8307 82.2891 23.0547C81.9557 23.2786 81.7057 23.612 81.5391 24.0547C81.3776 24.4974 81.2969 25.0469 81.2969 25.7031C81.2969 26.3385 81.3802 26.875 81.5469 27.3125C81.7135 27.7448 81.9609 28.0729 82.2891 28.2969C82.6172 28.5156 83.0208 28.625 83.5 28.625C83.974 28.625 84.3984 28.5677 84.7734 28.4531C85.1484 28.3385 85.5026 28.1901 85.8359 28.0078V29.6016C85.5078 29.7891 85.1562 29.9271 84.7812 30.0156C84.4062 30.1094 83.9453 30.1562 83.3984 30.1562ZM91.5625 21.1875C92.3333 21.1875 92.9948 21.3464 93.5469 21.6641C94.099 21.9818 94.5234 22.4323 94.8203 23.0156C95.1172 23.599 95.2656 24.2969 95.2656 25.1094V26.0938H89.4922C89.513 26.9323 89.737 27.5781 90.1641 28.0312C90.5964 28.4844 91.2005 28.7109 91.9766 28.7109C92.5286 28.7109 93.0234 28.6589 93.4609 28.5547C93.9036 28.4453 94.3594 28.2865 94.8281 28.0781V29.5703C94.3958 29.7734 93.9557 29.9219 93.5078 30.0156C93.0599 30.1094 92.5234 30.1562 91.8984 30.1562C91.0495 30.1562 90.3021 29.9922 89.6562 29.6641C89.0156 29.3307 88.513 28.8359 88.1484 28.1797C87.7891 27.5234 87.6094 26.7083 87.6094 25.7344C87.6094 24.7656 87.7734 23.9427 88.1016 23.2656C88.4297 22.5885 88.8906 22.0729 89.4844 21.7188C90.0781 21.3646 90.7708 21.1875 91.5625 21.1875ZM91.5625 22.5703C90.9844 22.5703 90.5156 22.7578 90.1562 23.1328C89.8021 23.5078 89.5938 24.0573 89.5312 24.7812H93.4688C93.4635 24.349 93.3906 23.9661 93.25 23.6328C93.1146 23.2995 92.9062 23.0391 92.625 22.8516C92.349 22.6641 91.9948 22.5703 91.5625 22.5703ZM99.4297 30H97.5859V17.8438H99.4297V30Z" fill="#252A2E"/>
</g>
<defs>
<clipPath id="clip0_647_123094">
<rect width="85" height="24" fill="white" transform="translate(16 12)"/>
</clipPath>
</defs>
</svg>
